packages/sources/assets/src/assets/payoneer.svg

<svg width="58" height="40" viewBox="0 0 58 40" fill="none" xmlns="http://www.w3.org/2000/svg">
<rect x="0.5" y="0.5" width="57" height="39" rx="3.5" fill="white" stroke="#F3F3F3"/>
<path fill-rule="evenodd" clip-rule="evenodd" d="M33.1717 11C33.3349 11.0371 33.4982 11.0928 33.6614 11.1175C34.3386 11.2289 34.8827 11.6 35.3482 12.0887C35.4631 12.2062 35.578 12.4412 35.5296 12.5649C35.4752 12.701 35.2576 12.8309 35.0943 12.8557C33.5707 13.0845 32.0895 13.4928 30.6687 14.0928C29.8464 14.4392 29.0423 14.8598 28.2563 15.2866C26.5453 16.2268 25.1548 17.5814 23.7944 18.9732C22.3555 20.4454 21.0133 22.0041 19.8404 23.7052C19.1088 24.7629 18.4256 25.8577 17.7727 26.9711C17.4462 27.5278 17.2346 28.1526 16.9686 28.7464C16.9262 28.833 16.8355 28.9876 16.8053 28.9753C16.6904 28.9381 16.5212 28.8701 16.4909 28.7773C16.4184 28.5485 16.3458 28.2825 16.3881 28.0536C16.6179 26.8103 17.1258 25.666 17.688 24.5464C18.7823 22.3814 20.1548 20.4082 21.7569 18.6144C22.6699 17.5938 23.6131 16.5979 24.5865 15.6454C26.0496 14.2041 27.682 12.9856 29.5018 12.0454C30.3422 11.6124 31.2128 11.2845 32.1378 11.1052C32.295 11.0742 32.4462 11.0371 32.5973 11.0062C32.7969 11 32.9843 11 33.1717 11Z" fill="#F78223"/>
<path fill-rule="evenodd" clip-rule="evenodd" d="M4 24.8186C4.08464 24.3547 4.15115 23.9279 4.23579 23.5011C4.6711 21.1567 5.11245 18.8186 5.54776 16.4742C5.57799 16.3258 5.62031 16.2268 5.76542 16.2021C6.89601 16.0289 8.03265 15.9052 9.16324 16.1959C10.1487 16.4433 10.838 17.1547 10.9528 17.9897C11.1886 19.6536 10.2394 20.9835 8.83071 21.4598C8.08706 21.7072 7.33132 21.7691 6.56348 21.6949C6.3821 21.6763 6.32769 21.7258 6.29746 21.9052C6.13422 22.8145 5.96493 23.7175 5.7896 24.6206C5.77751 24.6949 5.711 24.8124 5.66868 24.8124C5.1185 24.8248 4.58041 24.8186 4 24.8186ZM6.59976 20.2227C6.96856 20.2227 7.30109 20.2536 7.62152 20.2165C8.2503 20.1485 8.75212 19.8578 9.03628 19.2454C9.35671 18.5526 9.12697 17.8165 8.52237 17.6C8.09311 17.4454 7.65175 17.4763 7.2104 17.5382C7.15599 17.5444 7.08343 17.631 7.07134 17.6866C6.92019 18.4969 6.76904 19.3134 6.59976 20.2227Z" fill="#616161"/>
<path fill-rule="evenodd" clip-rule="evenodd" d="M14.7195 23.6309C14.4172 23.9525 14.1753 24.2804 13.867 24.5216C13.2322 25.0226 12.5066 25.134 11.7751 24.7876C11.0496 24.4474 10.7533 23.7855 10.7231 23.0061C10.6566 21.367 11.2189 20.0123 12.5671 19.0721C13.4135 18.4783 14.3869 18.2989 15.3966 18.3546C15.9105 18.3855 16.4184 18.5092 16.9323 18.5834C17.1378 18.6144 17.1681 18.7319 17.1318 18.9113C16.902 20.136 16.6602 21.3546 16.4667 22.5793C16.364 23.2288 16.3337 23.8968 16.2914 24.5525C16.2793 24.7505 16.2309 24.8309 16.0314 24.8247C15.6566 24.8123 15.2817 24.8123 14.9069 24.8247C14.7134 24.8309 14.6469 24.7566 14.665 24.5649C14.6892 24.268 14.7013 23.9587 14.7195 23.6309ZM15.1427 19.8082C14.5562 19.6412 14.0665 19.7587 13.6554 20.1113C12.8815 20.7793 12.5308 21.6453 12.5973 22.6783C12.6155 22.9938 12.7364 23.2968 13.0629 23.4329C13.3894 23.569 13.6856 23.47 13.9395 23.2474C14.0907 23.1113 14.2358 22.9566 14.3446 22.7834C14.919 21.8865 14.9311 20.835 15.1427 19.8082Z" fill="#616161"/>
<path fill-rule="evenodd" clip-rule="evenodd" d="M26.5574 24.967C24.9553 24.967 24.0423 24.3608 23.7098 23.2722C23.1596 21.4783 24.2177 18.6763 26.8053 18.3794C27.5792 18.2928 28.3047 18.3917 28.9395 18.8742C29.5441 19.3319 29.8404 19.9752 29.8827 20.7361C29.9311 21.5278 29.7981 22.2825 29.4353 22.9876C28.7521 24.299 27.6578 24.9361 26.5574 24.967ZM25.4329 22.2701C25.4329 22.3629 25.4268 22.4618 25.4329 22.5546C25.4813 23.2041 25.9347 23.6185 26.5333 23.5629C26.8658 23.5319 27.1258 23.3526 27.3313 23.0928C27.8694 22.3938 28.075 21.5897 28.0024 20.7175C27.942 20.0062 27.416 19.6289 26.7751 19.7773C26.4607 19.8515 26.2249 20.0495 26.0375 20.3093C25.6203 20.8969 25.451 21.5588 25.4329 22.2701Z" fill="#616161"/>
<path fill-rule="evenodd" clip-rule="evenodd" d="M31.3216 18.5092C31.8355 18.5092 32.3253 18.5092 32.8573 18.5092C32.8331 18.8433 32.8089 19.1649 32.7787 19.4927C32.954 19.3257 33.1112 19.1649 33.2745 19.0226C33.873 18.4907 34.5562 18.2556 35.3482 18.3855C36.0012 18.4969 36.4547 18.9855 36.5272 19.6721C36.6118 20.4391 36.4547 21.1814 36.3156 21.9237C36.1463 22.8206 35.9831 23.7175 35.8077 24.6082C35.7896 24.6886 35.6989 24.8062 35.6385 24.8123C35.1185 24.8247 34.5985 24.8185 34.0786 24.8123C34.0544 24.8123 34.0302 24.7938 33.9819 24.769C34.0786 24.2556 34.1753 23.736 34.266 23.2165C34.4051 22.4185 34.5381 21.6268 34.659 20.8288C34.6832 20.6927 34.6711 20.5505 34.653 20.4144C34.6046 19.9381 34.26 19.7216 33.8126 19.8639C33.3773 20.0062 33.1173 20.3525 32.9057 20.736C32.5913 21.2989 32.4825 21.9237 32.3736 22.5484C32.2527 23.235 32.1378 23.9154 32.0048 24.602C31.9867 24.6824 31.896 24.8062 31.8355 24.8123C31.3035 24.8309 30.7654 24.8247 30.1729 24.8247C30.5719 22.6969 30.9468 20.6123 31.3216 18.5092Z" fill="#616161"/>
<path fill-rule="evenodd" clip-rule="evenodd" d="M39.0121 22.3444C38.9698 22.9877 39.3991 23.4454 40.0399 23.5258C40.6627 23.6001 41.2612 23.5011 41.8416 23.2722C41.9021 23.2475 41.9686 23.2227 42.0351 23.198C42.0472 23.1918 42.0653 23.198 42.1137 23.198C42.15 23.5753 42.1923 23.9526 42.2104 24.3299C42.2165 24.4042 42.1318 24.5217 42.0593 24.5526C41.0496 24.9732 40.0037 25.1217 38.9396 24.8434C37.948 24.5836 37.4039 23.8537 37.2951 22.833C37.1379 21.3918 37.549 20.1299 38.6433 19.1774C39.5442 18.3918 40.6022 18.1444 41.7509 18.497C42.5188 18.732 42.948 19.3196 43.0024 20.1299C43.0569 20.9279 42.7183 21.5403 41.9928 21.9114C41.4245 22.2021 40.8138 22.3073 40.1911 22.3444C39.8041 22.3629 39.4112 22.3444 39.0121 22.3444ZM39.1875 21.0021C39.653 21.1011 40.6082 20.9836 40.9771 20.7856C41.231 20.6495 41.3579 20.433 41.3156 20.1732C41.2733 19.9073 41.098 19.7774 40.8561 19.7155C40.1367 19.5361 39.2842 20.1794 39.1875 21.0021Z" fill="#616161"/>
<path fill-rule="evenodd" clip-rule="evenodd" d="M45.052 22.3691C44.9976 22.9752 45.4208 23.4392 46.0677 23.5258C46.6723 23.6 47.2527 23.5072 47.821 23.2969C47.9178 23.2598 48.0085 23.2227 48.1354 23.1732C48.1717 23.5752 48.2201 23.9526 48.2382 24.3299C48.2442 24.4041 48.1596 24.5216 48.0931 24.5526C47.0653 24.9855 46.0072 25.134 44.925 24.8309C43.9516 24.5587 43.4438 23.835 43.3228 22.8453C43.1717 21.5773 43.4921 20.433 44.3567 19.4928C45.2878 18.4845 46.4305 18.1258 47.7485 18.4969C48.5526 18.7258 48.9819 19.3196 49.0302 20.1546C49.0786 20.9711 48.7158 21.5835 47.9601 21.9422C47.1983 22.301 46.3881 22.3567 45.5659 22.3752C45.4027 22.3691 45.2334 22.3691 45.052 22.3691ZM45.2273 21.0515C45.6143 21.0268 45.977 21.0206 46.3337 20.9711C46.5756 20.9402 46.8174 20.866 47.0351 20.7608C47.2708 20.6557 47.3857 20.433 47.3494 20.1608C47.3132 19.901 47.1439 19.7773 46.9081 19.7154C46.1947 19.5175 45.3059 20.1855 45.2273 21.0515Z" fill="#616161"/>
<path fill-rule="evenodd" clip-rule="evenodd" d="M49.133 24.8185C49.2116 24.3608 49.2841 23.9463 49.3627 23.5257C49.6771 21.9237 49.9976 20.3216 50.1306 18.6824C50.1366 18.6144 50.2273 18.503 50.2757 18.4969C50.7352 18.4845 51.1947 18.4907 51.6904 18.4907C51.6542 18.9298 51.6239 19.3443 51.5937 19.7525C52.1499 18.9175 52.7908 18.2371 53.9395 18.3608C53.8247 18.9484 53.7279 19.4927 53.613 20.0309C53.601 20.0742 53.5224 20.1298 53.474 20.136C52.2829 20.2969 51.7811 20.7298 51.4849 21.9793C51.2793 22.8453 51.1403 23.736 50.9649 24.6144C50.9528 24.6886 50.8863 24.8061 50.844 24.8061C50.2878 24.8247 49.7315 24.8185 49.133 24.8185Z" fill="#616161"/>
<path fill-rule="evenodd" clip-rule="evenodd" d="M19.9674 16.9814C19.9492 17.8474 19.8041 18.6825 19.5139 19.4866C19.4837 19.5732 19.4232 19.6474 19.3628 19.7216C19.2297 19.901 19.0846 19.9196 18.9819 19.7216C18.8489 19.4618 18.74 19.1835 18.6735 18.9051C18.48 18.033 18.2987 17.1546 18.1354 16.2701C17.9238 15.1443 17.7364 14.0124 17.5429 12.8866C17.5127 12.7258 17.5006 12.5588 17.4885 12.3979C17.4764 12.2124 17.5792 12.1196 17.7364 12.1814C17.8936 12.2371 18.0508 12.3299 18.1657 12.4474C19.127 13.4928 19.7316 14.7113 19.8948 16.1464C19.9311 16.4247 19.9432 16.7031 19.9674 16.9814Z" fill="#F78223"/>
</svg>

<svg width="58" height="40" fill="none" xmlns="http://www.w3.org/2000/svg"><rect x=".5" y=".5" width="57" height="39" rx="3.5" fill="#fff" stroke="#F3F3F3"/><path fill-rule="evenodd" clip-rule="evenodd" d="M33.172 11c.163.037.326.093.49.117.677.112 1.22.483 1.686.972.115.117.23.352.182.476-.055.136-.272.266-.436.29a18.347 18.347 0 0 0-4.425 1.238c-.823.346-1.627.767-2.413 1.194-1.71.94-3.101 2.294-4.462 3.686-1.439 1.472-2.78 3.031-3.954 4.732a51.743 51.743 0 0 0-2.067 3.266c-.327.557-.538 1.182-.804 1.775-.043.087-.134.242-.164.23-.115-.038-.284-.106-.314-.199-.073-.229-.145-.495-.103-.723.23-1.244.738-2.388 1.3-3.508a27.551 27.551 0 0 1 4.069-5.932 61.834 61.834 0 0 1 2.83-2.969c1.463-1.44 3.095-2.66 4.915-3.6.84-.433 1.71-.76 2.636-.94.157-.03.308-.068.46-.099.199-.006.386-.006.574-.006Z" fill="#F78223"/><path fill-rule="evenodd" clip-rule="evenodd" d="M4 24.819c.085-.464.151-.891.236-1.318.435-2.344.876-4.682 1.312-7.027.03-.148.072-.247.217-.272 1.131-.173 2.268-.297 3.398-.006.986.247 1.675.959 1.79 1.794.236 1.664-.714 2.994-2.122 3.47a5.43 5.43 0 0 1-2.268.235c-.18-.019-.235.03-.266.21-.163.91-.332 1.813-.507 2.716-.012.074-.079.191-.121.191-.55.013-1.089.007-1.669.007Zm2.6-4.596c.369 0 .701.03 1.022-.006.628-.069 1.13-.36 1.414-.972.32-.692.091-1.428-.514-1.645-.429-.155-.87-.124-1.312-.062-.054.006-.127.093-.139.149L6.6 20.223Zm8.12 3.407c-.303.323-.545.65-.853.892-.635.5-1.36.612-2.092.266-.725-.34-1.022-1.003-1.052-1.782-.066-1.639.496-2.994 1.844-3.934.847-.594 1.82-.773 2.83-.717.514.03 1.021.154 1.535.228.206.031.236.149.2.328-.23 1.225-.472 2.444-.665 3.668-.103.65-.133 1.318-.176 1.973-.012.198-.06.279-.26.273a17 17 0 0 0-1.124 0c-.194.006-.26-.068-.242-.26.024-.297.036-.606.055-.934Zm.423-3.822c-.587-.167-1.077-.05-1.488.303-.773.668-1.124 1.534-1.058 2.567.019.316.14.619.466.755s.623.037.877-.186c.15-.136.296-.29.405-.464.574-.896.586-1.948.798-2.975Zm11.414 5.159c-1.602 0-2.515-.606-2.847-1.695-.55-1.794.508-4.596 3.095-4.893.774-.086 1.5.013 2.134.495.605.458.901 1.101.944 1.862.048.792-.085 1.546-.448 2.252-.683 1.311-1.777 1.948-2.878 1.979Zm-1.124-2.697c0 .093-.006.192 0 .285.048.65.502 1.064 1.1 1.008.333-.031.593-.21.798-.47.538-.7.744-1.503.671-2.375-.06-.712-.586-1.09-1.227-.94-.314.074-.55.271-.737.531-.418.588-.587 1.25-.605 1.961Zm5.889-3.76h1.535a50.83 50.83 0 0 1-.078.983c.175-.167.332-.328.495-.47.599-.532 1.282-.767 2.074-.637.653.11 1.107.6 1.18 1.286.084.767-.073 1.51-.212 2.252-.17.897-.333 1.794-.508 2.684-.018.08-.11.198-.17.204-.52.013-1.04.006-1.56 0-.024 0-.048-.018-.096-.043a118.618 118.618 0 0 0 .677-3.94 1.362 1.362 0 0 0-.006-.415c-.048-.476-.393-.692-.84-.55-.436.142-.696.488-.907.872-.315.563-.423 1.188-.532 1.812-.121.687-.236 1.367-.37 2.054-.017.08-.108.204-.168.21-.532.019-1.07.013-1.663.013.399-2.128.774-4.213 1.149-6.316Zm7.69 3.834c-.042.644.387 1.101 1.028 1.182a3.662 3.662 0 0 0 1.802-.254c.06-.024.127-.05.193-.074.012-.006.03 0 .079 0 .036.377.078.755.096 1.132.007.074-.078.192-.15.223-1.01.42-2.056.569-3.12.29-.992-.26-1.536-.99-1.645-2.01-.157-1.441.254-2.703 1.348-3.656.901-.785 1.96-1.033 3.108-.68.768.235 1.197.823 1.251 1.633.055.798-.284 1.41-1.01 1.781-.567.291-1.178.396-1.8.433-.388.019-.78 0-1.18 0Zm.175-1.342c.466.1 1.421-.018 1.79-.216.254-.137.38-.353.339-.613-.043-.266-.218-.396-.46-.457-.72-.18-1.572.463-1.669 1.286Zm5.865 1.368c-.054.605.369 1.07 1.016 1.156.604.074 1.185-.019 1.753-.23.097-.036.188-.073.314-.123.037.402.085.78.103 1.157.006.074-.078.192-.145.223-1.028.432-2.086.581-3.168.278-.973-.272-1.481-.996-1.602-1.986-.151-1.268.17-2.412 1.034-3.352.93-1.008 2.074-1.367 3.392-.996.804.229 1.233.823 1.281 1.658.049.816-.314 1.428-1.07 1.787-.762.359-1.572.415-2.394.433-.163-.006-.333-.006-.514-.006Zm.175-1.319c.387-.024.75-.03 1.107-.08.242-.03.483-.105.701-.21.236-.105.35-.328.314-.6-.036-.26-.205-.384-.44-.446-.714-.198-1.603.47-1.682 1.337Zm3.906 3.768c.079-.458.151-.873.23-1.293.314-1.602.635-3.204.768-4.844.006-.068.096-.179.145-.185.46-.012.919-.006 1.414-.006-.036.439-.066.853-.096 1.262.556-.835 1.197-1.516 2.346-1.392-.115.587-.212 1.132-.327 1.67-.012.043-.09.099-.139.105-1.191.16-1.693.594-1.99 1.843-.205.866-.344 1.757-.52 2.635-.011.075-.078.192-.12.192-.556.019-1.113.012-1.711.012Z" fill="#616161"/><path fill-rule="evenodd" clip-rule="evenodd" d="M19.967 16.981a7.805 7.805 0 0 1-.453 2.506.818.818 0 0 1-.151.235c-.133.179-.278.198-.381 0a3.705 3.705 0 0 1-.308-.817 75.182 75.182 0 0 1-.539-2.635c-.211-1.126-.399-2.258-.592-3.383-.03-.161-.042-.328-.055-.49-.012-.185.091-.277.248-.216.158.056.315.149.43.266.961 1.046 1.566 2.264 1.729 3.7.036.278.048.556.072.834Z" fill="#F78223"/></svg>
